src/images/cardBrands/diners.svg

<?xml version="1.0" encoding="UTF-8"?>
<svg width="24px" height="16px" viewBox="0 0 24 16" version="1.1" xmlns="http://www.w3.org/2000/svg" xmlns:xlink="http://www.w3.org/1999/xlink">
    <g id="319" stroke="none" stroke-width="1" fill="none" fill-rule="evenodd">
        <g id="New-Icons" transform="translate(-320.000000, -280.000000)" fill-rule="nonzero">
            <g id="Card-Brands" transform="translate(40.000000, 200.000000)">
                <g id="Color" transform="translate(0.000000, 80.000000)">
                    <g id="Diners-Club" transform="translate(280.000000, 0.000000)">
                        <path d="M21.9972414,15.749927 L21.999381,15.7499362 C22.9544683,15.7581106 23.73806,14.9772525 23.75,14.0041555 L23.7500083,2.00630219 C23.7461702,1.53568921 23.5588633,1.08617106 23.2297297,0.756801782 C22.9014319,0.428268884 22.4589161,0.246148853 21.9972414,0.250070854 L2.00063,0.250061791 C1.54108393,0.246148853 1.09856813,0.428268884 0.77027028,0.756801782 C0.441136651,1.08617106 0.253829819,1.53568921 0.25,2.00426336 L0.249991686,13.9936957 C0.253829819,14.4643086 0.441136651,14.9138268 0.77027028,15.2431961 C1.09856813,15.571729 1.54108393,15.753849 2.00275862,15.749927 L21.9972414,15.749927 Z M21.996203,16.249927 C21.9958359,16.249924 21.9954688,16.249921 21.9951018,16.2499178 L21.9972414,16.249927 L21.996203,16.249927 Z" id="shape" stroke-opacity="0.2" stroke="#000000" stroke-width="0.5" fill="#FFFFFF"></path>
                        <path d="M10.0021142,2.05179033 L10.0021142,2.03579033 L14.0021142,2.03579033 L14.0021142,2.05179033 C17.1375481,2.28122918 19.5642283,4.89197286 19.5642283,8.03579033 C19.5642283,11.1796078 17.1375481,13.7903515 14.0021142,14.0197903 L14.0021142,14.0357903 L10.0021142,14.0357903 L10.0021142,14.0197903 C6.86668021,13.7903515 4.44,11.1796078 4.44,8.03579033 C4.44,4.89197286 6.86668021,2.28122918 10.0021142,2.05179033 Z" id="shape" fill="#0165AC"></path>
                        <path d="M11.6021142,11.4277903 C13.0374002,10.9175027 13.9961556,9.55908923 13.9961556,8.03579033 C13.9961556,6.51249143 13.0374002,5.15407792 11.6021142,4.64379033 L11.6021142,11.4277903 L11.6021142,11.4277903 Z M9.20211417,4.64379033 C7.76682809,5.15407792 6.80807271,6.51249143 6.80807271,8.03579033 C6.80807271,9.55908923 7.76682809,10.9175027 9.20211417,11.4277903 L9.20211417,4.64379033 L9.20211417,4.64379033 Z M10.4021142,13.2357903 C7.53023347,13.2357903 5.20211417,10.907671 5.20211417,8.03579033 C5.20211417,5.16390963 7.53023347,2.83579033 10.4021142,2.83579033 C13.2739949,2.83579033 15.6021142,5.16390963 15.6021142,8.03579033 C15.6021142,10.907671 13.2739949,13.2357903 10.4021142,13.2357903 Z" id="shape" fill="#FFFFFF"></path>
                    </g>
                </g>
            </g>
        </g>
    </g>
</svg>

<svg xmlns="http://www.w3.org/2000/svg" viewBox="0 0 24.00002 16"><path d="M21.99725,15.74993l.00214,0A1.75235,1.75235,0,0,0,23.75,14.00416l0-11.99786A1.7886,1.7886,0,0,0,23.22974.7568,1.71972,1.71972,0,0,0,21.99725.25007l-19.99661,0A1.71846,1.71846,0,0,0,.77028.7568,1.78737,1.78737,0,0,0,.25,2.00426l0,11.98944a1.78855,1.78855,0,0,0,.52028,1.2495,1.71971,1.71971,0,0,0,1.23249.50673Z" fill="#fff" stroke="#000" stroke-opacity="0.2" stroke-width="0.5"/><path d="M10.00212,2.05179v-.016h4v.016a6,6,0,0,1,0,11.968v.016h-4v-.016a6,6,0,0,1,0-11.968Z" fill="#0165ac"/><path d="M11.60212,11.42779a3.6,3.6,0,0,0,0-6.784v6.784Zm-2.4-6.784a3.6,3.6,0,0,0,0,6.784v-6.784Zm1.2,8.592a5.2,5.2,0,1,1,5.2-5.2A5.2,5.2,0,0,1,10.40212,13.23579Z" fill="#fff"/></svg>
